assets/img/arrow_left.svg

<svg height="18" preserveAspectRatio="xMidYMid" viewBox="0 0 23 18" width="23" xmlns="http://www.w3.org/2000/svg"><path d="m23 10h-19.566l6.566 6.566-1.428 1.427-7.993-7.993h-.579v-2h.485l8-8 1.414 1.414-6.585 6.586h19.686z"/></svg>

<svg xmlns="http://www.w3.org/2000/svg" xmlns:xlink="http://www.w3.org/1999/xlink" preserveAspectRatio="xMidYMid" width="23" height="18" viewBox="0 0 23 18">
  <path d="M23.000,10.000 L3.434,10.000 L10.000,16.566 L8.572,17.993 L0.579,10.000 L-0.000,10.000 L-0.000,8.000 L0.485,8.000 L8.485,-0.000 L9.899,1.414 L3.314,8.000 L23.000,8.000 L23.000,10.000 Z" class="cls-1"/>
</svg>
